X: 34389
T: Ricer
R: reel
M: 4/4
K: Dmajor
FE|:D2 FA d2- dd-|dcBc A2 GF|G2 GF GABc|dcBc A2 FE|
D2 FA d2- dd-|dcBc A2 GF|GABG ABce|1 d4- d2 FE:|2 d4- dcde||
|:f2- f e- e2 d2-|dcBc A2 GF|G2 GF GABc|dcBc A2 de|
f2- f e- e2 d2-|dcBc A2 GF|GABG ABce|1 d4- dcde:|2 d4- d2||

